docs/img/layout/hasura-con.svg

<svg width="44" height="50" viewBox="0 0 44 50" fill="none" xmlns="http://www.w3.org/2000/svg">
<path fill-rule="evenodd" clip-rule="evenodd" d="M25.7014 30.7436L30.9833 23.8941L23.578 18.9614L21.9059 21.2871L26.7896 24.533L23.3391 29.0568L25.7014 30.7436ZM7.09536 23.2551C7.25461 22.0539 6.96265 20.8527 6.27255 19.8559C5.78734 19.1551 5.35133 18.1542 5.01181 16.9897C4.69532 15.9043 4.46267 14.6768 4.35216 13.4179C4.26387 12.4119 4.25355 11.3859 4.34076 10.3963C4.34327 10.3678 4.34586 10.3394 4.34853 10.311C4.35456 10.2469 4.361 10.1829 4.36786 10.1191C4.36988 10.1003 4.37194 10.0816 4.37403 10.0628C4.3863 9.95296 4.39981 9.84364 4.4146 9.73494C4.6004 9.07043 5.609 9.04487 5.79479 9.73494L5.84788 9.96496C5.86579 10.0275 5.88399 10.0895 5.90249 10.1509C6.22866 11.234 6.64567 12.1372 7.13266 12.8677C7.63239 13.6173 8.20582 14.185 8.83041 14.5784C9.3531 14.9077 9.91161 15.1148 10.4927 15.2043C10.8378 15.2555 11.1828 15.1532 11.4217 14.9232C13.3328 13.1597 15.7215 11.8818 18.4819 11.3707C21.2423 10.8084 23.9761 11.064 26.418 11.9585C26.71 12.0607 27.2143 12.0096 27.4797 11.8051C27.9316 11.4698 28.3256 11.0689 28.6485 10.5938C29.0498 10.0033 29.3411 9.29843 29.497 8.46312C29.6552 7.61503 29.6738 6.63251 29.5261 5.49879C29.517 5.42911 29.5073 5.35886 29.4969 5.28804L29.4704 5.05783C29.3642 4.34221 30.2932 3.95884 30.7444 4.52111C30.809 4.62627 30.8726 4.73279 30.935 4.84054C30.9437 4.85561 30.9524 4.8707 30.9611 4.88582C30.9942 4.94343 31.0269 5.00139 31.0594 5.05967C31.0677 5.07465 31.076 5.08966 31.0843 5.10468C31.5582 5.9632 31.962 6.8916 32.2892 7.83264C32.6883 8.98046 32.9736 10.1471 33.1334 11.2286C33.3208 12.4967 33.3358 13.6478 33.1597 14.5143C32.9208 15.69 33.1597 16.8912 33.7702 17.9391C34.4348 19.0591 34.9721 20.3017 35.3061 21.6304C35.3455 21.7875 35.3821 21.9457 35.4158 22.105C35.6075 22.9978 35.7051 23.8885 35.715 24.7675C35.7885 31.3112 31.0021 37.2064 24.0292 38.5132C17.4098 39.7425 10.643 36.0448 8.07994 30.1831C7.76537 29.4637 7.51412 28.7117 7.33424 27.9322C7.27398 27.6555 7.22182 27.3788 7.17775 27.1025C6.96947 25.7965 6.94201 24.4997 7.09536 23.2551ZM19.2516 21.7727L16.7567 20.2648L12.0322 27.4977L19.7825 31.8682L21.2688 29.4146L16.1197 26.5265L19.2516 21.7727ZM39.6022 21.2131C41.7544 31.2537 34.9392 40.8235 24.8177 42.7204L24.8142 42.721L24.8108 42.7217C15.2446 44.4982 5.35134 38.3751 3.16347 28.8948L3.1575 28.8689L3.15186 28.8429C2.7104 26.8156 2.59893 24.7458 2.8471 22.7317L2.84951 22.7121L2.8521 22.6926C2.8708 22.5515 2.84063 22.4186 2.7533 22.2924C1.59326 20.6169 0.84829 18.3698 0.435866 16.258C0.00873824 14.0708 -0.153527 11.5595 0.173305 9.15778L0.213014 8.86598L0.292314 8.58236C0.993397 6.07488 3.23813 4.96631 5.0589 4.94683C6.93629 4.92675 9.23646 6.05366 9.92799 8.62211L9.94813 8.69692L9.99141 8.88444C10.1584 9.44604 10.3388 9.86698 10.5057 10.1773C12.5775 8.72844 14.9856 7.67064 17.6649 7.16883C20.2822 6.64109 22.8878 6.68264 25.3413 7.20506C25.3568 6.8788 25.3412 6.45268 25.2614 5.9064L25.2521 5.84257L25.224 5.59868C24.51 0.279627 31.1353 -1.83078 34.0828 1.84213L34.2504 2.05109L34.3908 2.27933C35.6558 4.33697 36.5344 6.69461 37.0378 8.86822C37.521 10.9548 37.7666 13.3379 37.3544 15.3666C37.3482 15.3972 37.345 15.4392 37.3565 15.5016C37.3682 15.5655 37.3974 15.6597 37.4636 15.7756C38.4123 17.3788 39.1783 19.2103 39.6022 21.2131Z" fill="url(#paint0_linear)"/>
<g filter="url(#filter0_d)">
<path d="M35.4156 22.105C35.0971 20.5971 34.5132 19.1914 33.77 17.9391C33.1595 16.8912 32.9207 15.69 33.1595 14.5143C33.6373 12.163 32.7083 7.71587 30.7442 4.52112C30.293 3.95885 29.364 4.34222 29.4702 5.05784L29.4967 5.28786C29.9745 8.55928 29.0986 10.6039 27.4795 11.8051C27.2141 12.0096 26.7098 12.0607 26.4178 11.9585C23.976 11.064 21.2421 10.8084 18.4817 11.3707C15.7214 11.8818 13.3326 13.1597 11.4215 14.9232C11.1827 15.1532 10.8376 15.2555 10.4926 15.2044C8.5019 14.8977 6.77667 13.2108 5.84769 9.96497L5.79461 9.73495C5.60881 9.04488 4.60021 9.07044 4.41442 9.73495C3.91012 13.4409 4.89218 17.8624 6.27237 19.8559C6.96246 20.8527 7.25443 22.0539 7.09517 23.2551C6.90938 24.763 6.989 26.3476 7.33405 27.9322C8.97966 35.0629 16.5973 39.8934 24.029 38.5132C31.9386 37.0309 37.0347 29.6446 35.4156 22.105ZM19.7823 31.8682L12.032 27.4977L16.7565 20.2648L19.2515 21.7728L16.1195 26.5265L21.2687 29.4146L19.7823 31.8682ZM25.7012 30.7436L23.3389 29.0568L26.7894 24.533L21.9057 21.2872L23.5778 18.9614L30.9831 23.8941L25.7012 30.7436Z" fill="url(#paint1_linear)"/>
<path fill-rule="evenodd" clip-rule="evenodd" d="M30.7441 4.5211C32.7082 7.71585 33.6372 12.1629 33.1595 14.5143C32.9206 15.6899 33.1595 16.8912 33.7699 17.939C34.5131 19.1914 35.097 20.5971 35.4155 22.105C37.0346 29.6446 31.9385 37.0309 24.029 38.5132C16.5972 39.8934 8.97959 35.0629 7.33398 27.9322C6.98893 26.3476 6.9093 24.763 7.0951 23.2551C7.25435 22.0539 6.96239 20.8527 6.27229 19.8559C4.8921 17.8624 3.91004 13.4408 4.41434 9.73493C4.60014 9.07043 5.60874 9.04487 5.79453 9.73493L5.84762 9.96495C6.77659 13.2108 8.50183 14.8976 10.4925 15.2043C10.8375 15.2555 11.1826 15.1532 11.4215 14.9232C13.3325 13.1597 15.7213 11.8818 18.4817 11.3706C21.242 10.8084 23.9759 11.0639 26.4178 11.9585C26.7097 12.0607 27.214 12.0096 27.4794 11.8051C29.0985 10.6039 29.9744 8.55927 29.4966 5.28784L29.4701 5.05782C29.3639 4.3422 30.2929 3.95883 30.7441 4.5211ZM28.8655 5.13638C28.6715 3.76352 30.4127 3.13401 31.2196 4.13953L31.2435 4.16929L31.2635 4.2018C32.2858 5.86473 33.0312 7.83889 33.4614 9.69642C33.8888 11.5416 34.0205 13.3385 33.7569 14.6357C33.551 15.649 33.7532 16.6982 34.2956 17.6302C35.0682 18.9327 35.6783 20.3993 36.0118 21.9781C37.7068 29.8739 32.3658 37.5711 24.1413 39.1125L24.1403 39.1126C16.4045 40.5492 8.46277 35.5347 6.73993 28.0693L6.73908 28.0656L6.73827 28.0619C6.37949 26.4143 6.29533 24.7606 6.49001 23.1806L6.49035 23.1778L6.49072 23.175C6.62996 22.1248 6.37528 21.0757 5.77104 20.2029C5.01401 19.1095 4.40145 17.4141 4.03827 15.5544C3.673 13.684 3.54746 11.5838 3.81025 9.65273L3.8159 9.61116L3.8272 9.57077C4.00672 8.92869 4.58251 8.62285 5.09792 8.61734C5.62139 8.61174 6.20507 8.91471 6.38324 9.57643L6.3861 9.58709L6.43807 9.81226C7.33206 12.9226 8.92284 14.3447 10.5833 14.6015C10.7567 14.6267 10.9072 14.572 10.9986 14.484L11.0032 14.4796L11.008 14.4752C12.997 12.6397 15.4872 11.3062 18.3653 10.7722C21.2354 10.1886 24.0797 10.4539 26.6215 11.3838C26.6546 11.3946 26.7507 11.4091 26.8796 11.3923C27.0133 11.3748 27.0897 11.3358 27.1074 11.3222L27.1118 11.3188L27.1162 11.3155C28.5064 10.2841 29.3485 8.49247 28.8934 5.37595L28.8921 5.36685L28.8655 5.13638Z" fill="url(#paint2_linear)"/>
</g>
<defs>
<filter id="filter0_d" x="2.67047" y="3.64587" width="40.6553" height="45.7125" filterUnits="userSpaceOnUse" color-interpolation-filters="sRGB">
<feFlood flood-opacity="0" result="BackgroundImageFix"/>
<feColorMatrix in="SourceAlpha" type="matrix" values="0 0 0 0 0 0 0 0 0 0 0 0 0 0 0 0 0 0 127 0"/>
<feOffset dx="3" dy="6"/>
<feGaussianBlur stdDeviation="2"/>
<feColorMatrix type="matrix" values="0 0 0 0 0 0 0 0 0 0 0 0 0 0 0 0 0 0 0.25 0"/>
<feBlend mode="normal" in2="BackgroundImageFix" result="effect1_dropShadow"/>
<feBlend mode="normal" in="SourceGraphic" in2="effect1_dropShadow" result="shape"/>
</filter>
<linearGradient id="paint0_linear" x1="33.938" y1="42.981" x2="6.40149" y2="1.72702" gradientUnits="userSpaceOnUse">
<stop stop-color="#291473"/>
<stop offset="1" stop-color="#724EF5"/>
</linearGradient>
<linearGradient id="paint1_linear" x1="35.7669" y1="38.7134" x2="4.26751" y2="6.60435" gradientUnits="userSpaceOnUse">
<stop stop-color="#EAEF20"/>
<stop offset="1" stop-color="#FBFF64"/>
</linearGradient>
<linearGradient id="paint2_linear" x1="32.312" y1="34.6489" x2="17.8833" y2="19.0009" gradientUnits="userSpaceOnUse">
<stop stop-color="#DEE239"/>
<stop offset="1" stop-color="#FEFFC1"/>
</linearGradient>
</defs>
</svg>

<svg width="44" height="50" fill="none" xmlns="http://www.w3.org/2000/svg"><path fill-rule="evenodd" clip-rule="evenodd" d="M25.701 30.744l5.282-6.85-7.405-4.933-1.672 2.326 4.884 3.246-3.45 4.524 2.361 1.687zM7.095 23.255a4.83 4.83 0 00-.822-3.4c-.486-.7-.922-1.7-1.261-2.865a18.818 18.818 0 01-.66-3.572 17.38 17.38 0 01.022-3.355c.012-.11.026-.22.04-.328.186-.665 1.195-.69 1.38 0l.054.23.054.186c.327 1.083.744 1.986 1.23 2.717.5.75 1.074 1.317 1.698 1.71.523.33 1.082.537 1.663.626.345.051.69-.05.929-.28a14.154 14.154 0 017.06-3.553 14.57 14.57 0 017.936.588c.292.102.796.05 1.062-.154a5.009 5.009 0 001.168-1.211c.402-.59.693-1.296.849-2.13.158-.849.177-1.831.03-2.965l-.03-.211-.027-.23c-.106-.716.823-1.1 1.274-.537a14.34 14.34 0 01.34.584c.474.858.878 1.787 1.205 2.728.4 1.147.685 2.314.844 3.396.188 1.268.203 2.419.027 3.285-.24 1.176 0 2.377.61 3.425a13.895 13.895 0 011.536 3.691 13.39 13.39 0 01.409 3.137c.074 6.544-4.713 12.44-11.686 13.746-6.62 1.23-13.386-2.468-15.95-8.33a12.798 12.798 0 01-.745-2.25 15.01 15.01 0 01-.156-.83 13.769 13.769 0 01-.083-3.848zm12.157-1.482l-2.495-1.508-4.725 7.233 7.75 4.37 1.487-2.453-5.15-2.889 3.133-4.753zm20.35-.56c2.152 10.04-4.663 19.61-14.784 21.507l-.004.001h-.003c-9.566 1.777-19.46-4.346-21.648-13.826l-.005-.026-.006-.026a18.265 18.265 0 01-.305-6.111l.003-.02.002-.02a.552.552 0 00-.099-.4C1.593 20.617.848 18.37.436 16.258c-.427-2.187-.59-4.698-.263-7.1l.04-.292.08-.284c.7-2.507 2.945-3.616 4.766-3.635 1.877-.02 4.177 1.107 4.869 3.675l.02.075.043.187c.167.562.348.983.515 1.293a18.337 18.337 0 017.159-3.008 18.884 18.884 0 017.676.036c.016-.326 0-.752-.08-1.299l-.009-.063-.028-.244c-.714-5.32 5.911-7.43 8.859-3.757l.167.21.14.227c1.266 2.058 2.144 4.416 2.648 6.59.483 2.086.729 4.469.316 6.498a.345.345 0 00.002.135c.012.063.041.158.108.274a18.04 18.04 0 012.138 5.437z" fill="url(#paint0_linear)"/><g filter="url(#filter0_d)"><path d="M35.416 22.105a13.768 13.768 0 00-1.646-4.166c-.61-1.048-.85-2.249-.61-3.425.477-2.351-.452-6.798-2.416-9.993-.451-.562-1.38-.179-1.274.537l.027.23c.477 3.271-.398 5.316-2.017 6.517-.266.205-.77.256-1.062.154a14.57 14.57 0 00-7.936-.588 14.154 14.154 0 00-7.06 3.552c-.24.23-.584.332-.93.281-1.99-.306-3.715-1.993-4.644-5.239l-.053-.23c-.186-.69-1.195-.665-1.38 0-.505 3.706.477 8.127 1.857 10.12a4.83 4.83 0 01.823 3.4 13.987 13.987 0 00.24 4.677c1.645 7.13 9.262 11.961 16.694 10.581 7.91-1.482 13.006-8.868 11.387-16.408zm-15.634 9.763l-7.75-4.37 4.724-7.233 2.495 1.508-3.132 4.753 5.15 2.889-1.487 2.453zm5.92-1.124l-2.363-1.687 3.45-4.524-4.883-3.246 1.672-2.326 7.405 4.933-5.282 6.85z" fill="url(#paint1_linear)"/><path fill-rule="evenodd" clip-rule="evenodd" d="M30.744 4.521c1.964 3.195 2.893 7.642 2.416 9.993-.24 1.176 0 2.377.61 3.425a13.77 13.77 0 011.645 4.166c1.62 7.54-3.476 14.926-11.386 16.408-7.432 1.38-15.05-3.45-16.695-10.58a13.987 13.987 0 01-.239-4.678 4.83 4.83 0 00-.823-3.4c-1.38-1.993-2.362-6.414-1.858-10.12.186-.665 1.195-.69 1.38 0l.054.23c.929 3.246 2.654 4.933 4.644 5.24.345.05.69-.052.93-.282a14.154 14.154 0 017.06-3.552 14.57 14.57 0 017.936.588c.292.102.796.05 1.061-.154 1.62-1.201 2.495-3.246 2.018-6.517l-.027-.23c-.106-.716.823-1.1 1.274-.537zm-1.878.615c-.194-1.372 1.547-2.002 2.354-.996l.024.03.02.032c1.022 1.663 1.767 3.637 2.197 5.494.428 1.846.56 3.643.296 4.94-.206 1.013-.004 2.062.539 2.994a14.376 14.376 0 011.716 4.348c1.695 7.896-3.646 15.593-11.87 17.134h-.002C16.404 40.55 8.463 35.536 6.74 28.07v-.003l-.002-.004a14.596 14.596 0 01-.248-4.881v-.006c.14-1.05-.115-2.1-.719-2.972-.757-1.093-1.37-2.789-1.733-4.649-.365-1.87-.49-3.97-.228-5.901l.006-.042.011-.04c.18-.642.756-.948 1.27-.954.524-.005 1.108.298 1.286.96l.003.01.052.225c.894 3.11 2.485 4.533 4.145 4.79a.495.495 0 00.416-.118l.004-.004.005-.005a14.763 14.763 0 017.357-3.703 15.18 15.18 0 018.257.612c.033.01.129.025.258.008a.553.553 0 00.227-.07l.005-.003.004-.004c1.39-1.03 2.233-2.823 1.777-5.939v-.01l-.027-.23z" fill="url(#paint2_linear)"/></g><defs><linearGradient id="paint0_linear" x1="33.938" y1="42.981" x2="6.401" y2="1.727" gradientUnits="userSpaceOnUse"><stop stop-color="#291473"/><stop offset="1" stop-color="#724EF5"/></linearGradient><linearGradient id="paint1_linear" x1="35.767" y1="38.713" x2="4.268" y2="6.604" gradientUnits="userSpaceOnUse"><stop stop-color="#EAEF20"/><stop offset="1" stop-color="#FBFF64"/></linearGradient><linearGradient id="paint2_linear" x1="32.312" y1="34.649" x2="17.883" y2="19.001" gradientUnits="userSpaceOnUse"><stop stop-color="#DEE239"/><stop offset="1" stop-color="#FEFFC1"/></linearGradient><filter id="filter0_d" x="2.67" y="3.646" width="40.655" height="45.712" filterUnits="userSpaceOnUse" color-interpolation-filters="sRGB"><feFlood flood-opacity="0" result="BackgroundImageFix"/><feColorMatrix in="SourceAlpha" values="0 0 0 0 0 0 0 0 0 0 0 0 0 0 0 0 0 0 127 0"/><feOffset dx="3" dy="6"/><feGaussianBlur stdDeviation="2"/><feColorMatrix values="0 0 0 0 0 0 0 0 0 0 0 0 0 0 0 0 0 0 0.25 0"/><feBlend in2="BackgroundImageFix" result="effect1_dropShadow"/><feBlend in="SourceGraphic" in2="effect1_dropShadow" result="shape"/></filter></defs></svg>
